X: 25
T:Shores of Lough Gowna [in B], The
T:Banks of Lough Gowna, The
M:6/8
L:1/8
R:Double Jig
K:BMin
FA[|:BcB BAF|FEF DFA|BcB BAF|d2e fed|!
BcB BAF|FEF DFA|def geg|fdB B2A:|!
|:def a2b|afb afe|dFA def|geg fdB|!
def a2b|afb afe|def geg|fdB B2A:|]!
